src/icons/svg/uber.svg

<!--added:0.26-->
<!--character:E162-->
<svg width="24" height="24" viewBox="0 0 24 24" version="1.1" xmlns="http://www.w3.org/2000/svg"><path id="uber-a" d="M5.0625,21 L4.58823529,21 C3.71107716,21 3,20.2889228 3,19.4117647 L3,4.58823529 C3,3.71107716 3.71107716,3 4.58823529,3 L19.4117647,3 C20.2889228,3 21,3.71107716 21,4.58823529 L21,5.0625 L21,19.9375 C21,20.5243025 20.5243025,21 19.9375,21 L5.0625,21 Z M11.9874753,7 C9.41320955,6.99996774 7.25742657,8.94501078 7,11.4999214 L10.4837139,11.4999214 L10.4837139,10.7499345 C10.4837139,10.6118657 10.5959233,10.4999389 10.7343408,10.4999389 L13.2406097,10.4999389 C13.3790272,10.4999389 13.4912366,10.6118657 13.4912366,10.7499345 L13.4912366,13.2498908 C13.4912366,13.3879596 13.3790272,13.4998865 13.2406097,13.4998865 L10.7343408,13.4998865 C10.5959233,13.4998865 10.4837139,13.3879596 10.4837139,13.2498908 L10.4837139,12.4999039 L7,12.4999039 C7.2703204,15.1827834 9.62469154,17.1685983 12.3218713,16.9886828 C15.019051,16.8087671 17.0873761,14.527936 16.9971578,11.8330427 C16.9069396,9.13814956 14.6906792,7.00003387 11.9874753,7 Z"></path></svg>

<!--added:0.26-->
<!--character:E162-->
<svg width="24" height="24" viewBox="0 0 24 24" xmlns="http://www.w3.org/2000/svg"><path d="M5.0625 21h-.4743C3.7111 21 3 20.289 3 19.4118V4.5882C3 3.7111 3.711 3 4.5882 3h14.8236C20.2889 3 21 3.711 21 4.5882v15.3493C21 20.5243 20.5243 21 19.9375 21H5.0625zm6.925-14C9.4132 7 7.2575 8.945 7 11.5h3.4837v-.75c0-.1381.1122-.25.2506-.25h2.5063c.1384 0 .2506.1119.2506.25v2.4999c0 .138-.1122.25-.2506.25h-2.5063a.2503.2503 0 0 1-.2506-.25v-.75H7c.2703 2.6829 2.6247 4.6687 5.3219 4.4888 2.6972-.18 4.7655-2.4608 4.6753-5.1557C16.9069 9.1381 14.6907 7 11.9875 7z"/></svg>
